svg/calendar_edit.svg

<svg xmlns="http://www.w3.org/2000/svg" viewBox="0 0 24 24"><path d="M19 3h-1V1h-2v2H8V1H6v2H5a2 2 0 0 0-2 2v14a2 2 0 0 0 2 2h5v-2H5V8h14v1h2V5a2 2 0 0 0-2-2m2.7 10.35-1 1-2.05-2 1-1c.2-.21.54-.22.77 0l1.28 1.28c.19.2.19.52 0 .72M12 18.94l6.07-6.06 2.05 2L14.06 21H12z"/></svg>

<?xml version="1.0" encoding="UTF-8"?><!DOCTYPE svg PUBLIC "-//W3C//DTD SVG 1.1//EN" "http://www.w3.org/Graphics/SVG/1.1/DTD/svg11.dtd"><svg xmlns="http://www.w3.org/2000/svg" xmlns:xlink="http://www.w3.org/1999/xlink" version="1.1" id="mdi-calendar-edit" width="24" height="24" viewBox="0 0 24 24"><path d="M19,3H18V1H16V3H8V1H6V3H5A2,2 0 0,0 3,5V19A2,2 0 0,0 5,21H10V19H5V8H19V9H21V5A2,2 0 0,0 19,3M21.7,13.35L20.7,14.35L18.65,12.35L19.65,11.35C19.85,11.14 20.19,11.13 20.42,11.35L21.7,12.63C21.89,12.83 21.89,13.15 21.7,13.35M12,18.94L18.07,12.88L20.12,14.88L14.06,21H12V18.94Z" /></svg>
